X: 31
T:The Butcher's March
S:Altan - The Blue Idol Track 5
M:6/8
F:http://blackrosetheband.googlepages.com/ABCTUNES.ABC May 2009
R:jig
K:G
d3 B3 | dBA A2B | ded BAB | dBG GBc |
d3 B3 | dBA A2g | ~f3 gfe |1 dBG GBc :|2 dBG G(3Bcd||
eAA fAA | eAA ABd | eAA gfe | dBG GBd |
eAA fAA | eAA Aag | faf gfe |1 dBG GBd :|2 dBG GBc ||

